common/svg/logout-mobile-icon.svg

<svg fill="none" height="20" viewBox="0 0 21 20" width="21" xmlns="http://www.w3.org/2000/svg"><path d="m14.1036 3.73897v-.03182c0-1.12694-.9135-2.04049-2.0405-2.04049h-8.42856c-1.12693 0-2.04048.91355-2.04048 2.04048v12.58576c0 1.1269.91355 2.0404 2.04048 2.0404h8.59106c1.0372 0 1.878-.8408 1.878-1.8779" stroke="#000" stroke-width="2.04049"/><path d="m13.071 15.2266v-3.169c-2.8321 0-4.83077 1.1094-5.82668 1.9594-.18201.1554-.49429.0259-.47576-.2127.36306-4.67279 4.29124-5.92629 6.30244-5.95635v-3.07445l7.0016 5.2975z" fill="#000"/></svg>

<svg width="21" height="20" viewBox="0 0 21 20" fill="none" xmlns="http://www.w3.org/2000/svg">
<path d="M14.1036 3.73897V3.70715C14.1036 2.58021 13.1901 1.66666 12.0631 1.66666H3.63454C2.50761 1.66666 1.59406 2.58021 1.59406 3.70714V16.2929C1.59406 17.4198 2.50761 18.3333 3.63454 18.3333H12.2256C13.2628 18.3333 14.1036 17.4925 14.1036 16.4554V16.4554" stroke="black" stroke-width="2.04049"/>
<path d="M13.071 15.2266V12.0576C10.2389 12.0576 8.24023 13.167 7.24432 14.017C7.06231 14.1724 6.75003 14.0429 6.76856 13.8043C7.13162 9.13151 11.0598 7.87801 13.071 7.84795V4.7735L20.0726 10.071L13.071 15.2266Z" fill="black"/>
</svg>
